;FLAVOR:Marlin
;TIME:16155
;Filament used: 4.80973m
;Layer height: 0.1
;Generated with Cura_SteamEngine 3.2.1
M190 S50
M104 S210
M109 S210
M82 ;absolute extrusion mode
G28 ;Home
G1 Z15.0 F6000 ;Move the platform down 15mm
;Prime the extruder
G92 E0
G1 F200 E3
G92 E0
;LAYER_COUNT:232
;LAYER:0
M107
G0 F2400 X24.716 Y0.085 Z0.3
;TYPE:SKIRT
G1 F1350 X24.843 Y0.703 E0.03184
G1 X24.924 Y1.488 E0.07166
G1 X24.934 Y1.89 E0.09196
G1 X24.934 Y38.108 E1.91971
G1 X24.894 Y38.897 E1.95958
G1 X24.775 Y39.677 E1.9994
G1 X24.577 Y40.442 E2.03928
G1 X24.303 Y41.182 E2.0791
G1 X23.955 Y41.891 E2.11895
G1 X23.537 Y42.562 E2.15885
G1 X23.054 Y43.186 E2.19867
G1 X22.511 Y43.759 E2.23851
G1 X21.912 Y44.274 E2.27838
G1 X21.264 Y44.725 E2.31822
G1 X20.573 Y45.109 E2.35811
G1 X19.848 Y45.421 E2.39794
G1 X19.095 Y45.658 E2.43778
G1 X18.321 Y45.817 E2.47766
G1 X17.536 Y45.898 E2.51748
G1 X17.134 Y45.908 E2.53778
G1 X-17.635 Y45.908 E4.2924
G1 X-18.424 Y45.868 E4.33227
G1 X-19.204 Y45.749 E4.37209
G1 X-19.969 Y45.551 E4.41197
G1 X-20.709 Y45.277 E4.45179
G1 X-21.418 Y44.929 E4.49165
G1 X-22.089 Y44.511 E4.53154
G1 X-22.713 Y44.028 E4.57137
G1 X-23.286 Y43.485 E4.6112
G1 X-23.801 Y42.886 E4.65107
G1 X-24.252 Y42.238 E4.69091
G1 X-24.636 Y41.547 E4.73081
G1 X-24.948 Y40.822 E4.77064
G1 X-25.185 Y40.069 E4.81047
G1 X-25.344 Y39.295 E4.85035
G1 X-25.425 Y38.51 E4.89018
G1 X-25.435 Y38.108 E4.91047
G1 X-25.435 Y1.89 E6.73822
G1 X-25.395 Y1.101 E6.77809
G1 X-25.276 Y0.321 E6.81791
G1 X-25.078 Y-.444 E6.85779
G1 X-24.966 Y-.747 E6.87409
G1 X-25.091 Y-1.356 E6.90546
G1 X-25.172 Y-2.141 E6.94529
G1 X-25.182 Y-2.543 E6.96558
G1 X-25.182 Y-38.756 E8.79308
G1 X-25.142 Y-39.545 E8.83295
G1 X-25.023 Y-40.325 E8.87277
G1 X-24.825 Y-41.09 E8.91265
G1 X-24.551 Y-41.83 E8.95247
G1 X-24.203 Y-42.539 E8.99233
G1 X-23.785 Y-43.21 E9.03222
G1 X-23.302 Y-43.834 E9.07204
G1 X-22.759 Y-44.407 E9.11188
G1 X-22.16 Y-44.922 E9.15175
G1 X-21.512 Y-45.373 E9.19159
G1 X-20.821 Y-45.757 E9.23148
G1 X-20.096 Y-46.069 E9.27131
G1 X-19.343 Y-46.306 E9.31115
G1 X-18.569 Y-46.465 E9.35103
G1 X-17.784 Y-46.546 E9.39085
G1 X-17.382 Y-46.556 E9.41115
G1 X17.381 Y-46.556 E11.16547
G1 X18.17 Y-46.516 E11.20534
G1 X18.95 Y-46.397 E11.24516
G1 X19.715 Y-46.199 E11.28504
G1 X20.455 Y-45.925 E11.32486
G1 X21.164 Y-45.577 E11.36472
G1 X21.835 Y-45.159 E11.40461
G1 X22.459 Y-44.676 E11.44443
G1 X23.032 Y-44.133 E11.48427
G1 X23.547 Y-43.534 E11.52414
G1 X23.998 Y-42.886 E11.56398
G1 X24.382 Y-42.195 E11.60387
G1 X24.694 Y-41.47 E11.6437
G1 X24.931 Y-40.717 E11.68354
G1 X25.09 Y-39.943 E11.72342
G1 X25.171 Y-39.158 E11.76324
G1 X25.181 Y-38.756 E11.78354
G1 X25.182 Y-2.543 E13.61104
G1 X25.142 Y-1.755 E13.65086
G1 X25.023 Y-.974 E13.69072
G1 X24.825 Y-.209 E13.7306
G1 X24.716 Y0.085 E13.74643
G0 F2400 X24.357 Y0.283
G1 F1350 X24.485 Y1.041 E13.78522
G1 X24.534 Y1.89 E13.82814
G1 X24.534 Y38.108 E15.65589
G1 X24.494 Y38.876 E15.6947
G1 X24.375 Y39.636 E15.73352
G1 X24.177 Y40.379 E15.77232
G1 X23.903 Y41.098 E15.81115
G1 X23.556 Y41.784 E15.84995
G1 X23.14 Y42.431 E15.88877
G1 X22.659 Y43.031 E15.92758
G1 X22.118 Y43.578 E15.9664
G1 X21.523 Y44.066 E16.00523
G1 X20.881 Y44.489 E16.04403
G1 X20.198 Y44.844 E16.08288
G1 X19.483 Y45.125 E16.12165
G1 X18.741 Y45.331 E16.16051
G1 X17.983 Y45.459 E16.1993
G1 X17.134 Y45.508 E16.24222
G1 X-17.635 Y45.508 E17.99685
G1 X-18.403 Y45.468 E18.03566
G1 X-19.163 Y45.349 E18.07448
G1 X-19.906 Y45.151 E18.11328
G1 X-20.625 Y44.877 E18.15211
G1 X-21.311 Y44.53 E18.19091
G1 X-21.958 Y44.114 E18.22973
G1 X-22.558 Y43.633 E18.26854
G1 X-23.105 Y43.092 E18.30736
G1 X-23.593 Y42.497 E18.3462
G1 X-24.016 Y41.855 E18.38499
G1 X-24.371 Y41.172 E18.42384
G1 X-24.652 Y40.457 E18.46261
G1 X-24.858 Y39.715 E18.50147
G1 X-24.986 Y38.957 E18.54026
G1 X-25.035 Y38.108 E18.58318
G1 X-25.035 Y1.89 E20.41093
G1 X-24.995 Y1.122 E20.44974
G1 X-24.876 Y0.362 E20.48856
G1 X-24.678 Y-.381 E20.52737
G1 X-24.547 Y-.726 E20.54599
G1 X-24.605 Y-.936 E20.55699
G1 X-24.733 Y-1.694 E20.59578
G1 X-24.782 Y-2.543 E20.6387
G1 X-24.782 Y-38.756 E22.4662
G1 X-24.742 Y-39.524 E22.50501
G1 X-24.623 Y-40.284 E22.54383
G1 X-24.425 Y-41.027 E22.58263
G1 X-24.151 Y-41.746 E22.62146
G1 X-23.804 Y-42.432 E22.66026
G1 X-23.388 Y-43.079 E22.69908
G1 X-22.907 Y-43.679 E22.73788
G1 X-22.366 Y-44.226 E22.77671
G1 X-21.771 Y-44.714 E22.81554
G1 X-21.129 Y-45.137 E22.85434
G1 X-20.446 Y-45.492 E22.89319
G1 X-19.731 Y-45.773 E22.93196
G1 X-18.989 Y-45.979 E22.97082
G1 X-18.231 Y-46.107 E23.00961
G1 X-17.382 Y-46.156 E23.05253
G1 X17.381 Y-46.156 E24.80685
G1 X18.149 Y-46.116 E24.84566
G1 X18.909 Y-45.997 E24.88449
G1 X19.652 Y-45.799 E24.92329
G1 X20.371 Y-45.525 E24.96212
G1 X21.057 Y-45.178 E25.00092
G1 X21.704 Y-44.762 E25.03973
G1 X22.304 Y-44.281 E25.07854
G1 X22.851 Y-43.74 E25.11737
G1 X23.339 Y-43.145 E25.1562
G1 X23.762 Y-42.503 E25.195
G1 X24.117 Y-41.82 E25.23385
G1 X24.398 Y-41.105 E25.27261
G1 X24.604 Y-40.363 E25.31148
G1 X24.732 Y-39.605 E25.35027
G1 X24.781 Y-38.756 E25.39319
G1 X24.782 Y-2.543 E27.22069
G1 X24.742 Y-1.775 E27.2595
G1 X24.623 Y-1.015 E27.29832
G1 X24.425 Y-.272 E27.33712
G1 X24.297 Y0.065 E27.35531
G1 X24.357 Y0.283 E27.36672
G0 F2400 X24.025 Y-.336
G1 F1350 X23.878 Y0.038 E27.387
G1 X24.02 Y0.631 E27.41778
G1 X24.115 Y1.373 E27.45553
G1 X24.134 Y1.89 E27.48164
G1 X24.134 Y38.108 E29.30939
G1 X24.094 Y38.855 E29.34714
G1 X23.975 Y39.593 E29.38486
G1 X23.777 Y40.315 E29.42265
G1 X23.504 Y41.011 E29.46037
G1 X23.157 Y41.674 E29.49814
G1 X22.742 Y42.297 E29.53591
G1 X22.263 Y42.871 E29.57364
G1 X21.726 Y43.392 E29.6114
G1 X21.136 Y43.851 E29.64913
G1 X20.5 Y44.246 E29.68691
G1 X19.826 Y44.57 E29.72465
G1 X19.121 Y44.82 E29.7624
G1 X18.393 Y44.994 E29.80017
G1 X17.651 Y45.089 E29.83792
G1 X17.134 Y45.108 E29.86403
G1 X-17.635 Y45.108 E31.61866
G1 X-18.382 Y45.068 E31.65641
G1 X-19.12 Y44.949 E31.69413
G1 X-19.842 Y44.751 E31.73191
G1 X-20.538 Y44.478 E31.76964
G1 X-21.201 Y44.131 E31.80741
G1 X-21.824 Y43.716 E31.84518
G1 X-22.398 Y43.237 E31.88291
G1 X-22.919 Y42.7 E31.92067
G1 X-23.378 Y42.11 E31.95839
G1 X-23.773 Y41.474 E31.99618
G1 X-24.097 Y40.8 E32.03392
G1 X-24.347 Y40.095 E32.07166
G1 X-24.521 Y39.367 E32.10944
G1 X-24.616 Y38.625 E32.14719
G1 X-24.635 Y38.108 E32.1733
G1 X-24.635 Y1.89 E34.00105
G1 X-24.595 Y1.143 E34.0388
G1 X-24.476 Y0.405 E34.07653
G1 X-24.278 Y-.317 E34.11431
G1 X-24.128 Y-.699 E34.13502
G1 X-24.268 Y-1.284 E34.16537
G1 X-24.363 Y-2.026 E34.20312
G1 X-24.382 Y-2.543 E34.22923
G1 X-24.382 Y-38.756 E36.05673
G1 X-24.342 Y-39.503 E36.09448
G1 X-24.223 Y-40.241 E36.13221
G1 X-24.025 Y-40.963 E36.16999
G1 X-23.752 Y-41.659 E36.20772
G1 X-23.405 Y-42.322 E36.24548
G1 X-22.99 Y-42.945 E36.28326
G1 X-22.511 Y-43.519 E36.32099
G1 X-21.974 Y-44.04 E36.35875
G1 X-21.384 Y-44.499 E36.39647
G1 X-20.748 Y-44.894 E36.43425
G1 X-20.074 Y-45.218 E36.47199
G1 X-19.369 Y-45.468 E36.50974
G1 X-18.641 Y-45.642 E36.54751
G1 X-17.899 Y-45.737 E36.58526
G1 X-17.382 Y-45.756 E36.61137
G1 X17.381 Y-45.756 E38.3657
G1 X18.128 Y-45.716 E38.40345
G1 X18.866 Y-45.597 E38.44117
G1 X19.588 Y-45.399 E38.47896
G1 X20.284 Y-45.126 E38.51668
G1 X20.947 Y-44.779 E38.55445
G1 X21.57 Y-44.364 E38.59223
G1 X22.144 Y-43.885 E38.62995
G1 X22.665 Y-43.348 E38.66771
G1 X23.124 Y-42.758 E38.70544
G1 X23.519 Y-42.122 E38.74322
G1 X23.843 Y-41.448 E38.78096
G1 X24.093 Y-40.743 E38.81871
G1 X24.267 Y-40.015 E38.85648
G1 X24.362 Y-39.273 E38.89423
G1 X24.381 Y-38.756 E38.92034
G1 X24.382 Y-2.543 E40.74784
G1 X24.342 Y-1.796 E40.78559
G1 X24.223 Y-1.058 E40.82331
G1 X24.025 Y-.336 E40.8611
G0 F2400 X23.625 Y-.402
G1 F1350 X23.454 Y0.019 E40.88403
G1 X23.53 Y0.261 E40.89683
G1 X23.67 Y0.973 E40.93345
G1 X23.734 Y1.89 E40.97984
G1 X23.734 Y38.108 E42.80759
G1 X23.694 Y38.833 E42.84423
G1 X23.575 Y39.55 E42.88091
G1 X23.377 Y40.249 E42.91757
G1 X23.104 Y40.922 E42.95423
G1 X22.759 Y41.561 E42.99087
G1 X22.345 Y42.158 E43.02754
G1 X21.869 Y42.706 E43.06417
G1 X21.335 Y43.199 E43.10084
G1 X20.75 Y43.629 E43.13748
G1 X20.121 Y43.993 E43.17416
G1 X19.456 Y44.286 E43.21083
G1 X18.763 Y44.504 E43.24749
G1 X18.051 Y44.644 E43.28411
G1 X17.134 Y44.708 E43.3305
G1 X-17.635 Y44.708 E45.08513
G1 X-18.36 Y44.668 E45.12177
G1 X-19.077 Y44.549 E45.15845
G1 X-19.776 Y44.351 E45.19511
G1 X-20.449 Y44.078 E45.23176
G1 X-21.088 Y43.733 E45.26841
G1 X-21.685 Y43.319 E45.30507
G1 X-22.233 Y42.843 E45.34171
G1 X-22.726 Y42.309 E45.37838
G1 X-23.156 Y41.724 E45.41502
G1 X-23.52 Y41.095 E45.4517
G1 X-23.813 Y40.43 E45.48837
G1 X-24.031 Y39.737 E45.52503
G1 X-24.171 Y39.025 E45.56165
G1 X-24.235 Y38.108 E45.60804
G1 X-24.235 Y1.89 E47.43579
G1 X-24.195 Y1.165 E47.47244
G1 X-24.076 Y0.448 E47.50911
G1 X-23.878 Y-.251 E47.54578
G1 X-23.704 Y-.679 E47.56909
G1 X-23.778 Y-.914 E47.58153
G1 X-23.918 Y-1.626 E47.61815
G1 X-23.982 Y-2.543 E47.66453
G1 X-23.982 Y-38.756 E49.49203
G1 X-23.942 Y-39.481 E49.52868
G1 X-23.823 Y-40.198 E49.56536
G1 X-23.625 Y-40.897 E49.60202
G1 X-23.352 Y-41.57 E49.63867
G1 X-23.007 Y-42.209 E49.67532
G1 X-22.593 Y-42.806 E49.71198
G1 X-22.117 Y-43.354 E49.74861
G1 X-21.583 Y-43.847 E49.78529
G1 X-20.998 Y-44.277 E49.82193
G1 X-20.369 Y-44.641 E49.8586
G1 X-19.704 Y-44.934 E49.89528
G1 X-19.011 Y-45.152 E49.93194
G1 X-18.299 Y-45.292 E49.96856
G1 X-17.382 Y-45.356 E50.01495
G1 X17.381 Y-45.356 E51.76927
G1 X18.106 Y-45.316 E51.80591
G1 X18.823 Y-45.197 E51.84259
G1 X19.522 Y-44.999 E51.87926
G1 X20.195 Y-44.726 E51.91591
G1 X20.834 Y-44.381 E51.95255
G1 X21.431 Y-43.967 E51.98922
G1 X21.979 Y-43.491 E52.02585
G1 X22.472 Y-42.957 E52.06253
G1 X22.902 Y-42.372 E52.09917
G1 X23.266 Y-41.743 E52.13584
G1 X23.559 Y-41.078 E52.17251
G1 X23.777 Y-40.385 E52.20917
G1 X23.917 Y-39.673 E52.24579
G1 X23.981 Y-38.756 E52.29218
G1 X23.982 Y-2.543 E54.11968
G1 X23.942 Y-1.818 E54.15633
G1 X23.823 Y-1.101 E54.193
G1 X23.625 Y-.402 E54.22967
G0 F2400 X23.225 Y-.471
G1 F1350 X23.032 Y-0.011 E54.25484
G1 X23.201 Y0.613 E54.28747
G1 X23.307 Y1.309 E54.323
G1 X23.334 Y1.89 E54.35235
G1 X23.334 Y38.108 E56.1801
G1 X23.294 Y38.811 E56.21563
G1 X23.175 Y39.505 E56.25117
G1 X22.977 Y40.18 E56.28667
G1 X22.705 Y40.829 E56.32218
G1 X22.36 Y41.443 E56.35772
G1 X21.949 Y42.014 E56.39323
G1 X21.475 Y42.535 E56.42877
G1 X20.945 Y42.999 E56.46432
G1 X20.366 Y43.399 E56.49983
G1 X19.745 Y43.731 E56.53537
G1 X19.091 Y43.991 E56.57089
G1 X18.411 Y44.175 E56.60644
G1 X17.715 Y44.281 E56.64197
G1 X17.134 Y44.308 E56.67132
G1 X-17.635 Y44.308 E58.42595
G1 X-18.338 Y44.268 E58.46148
G1 X-19.032 Y44.149 E58.49702
G1 X-19.707 Y43.951 E58.53251
G1 X-20.356 Y43.679 E58.56803
G1 X-20.97 Y43.334 E58.60357
G1 X-21.541 Y42.923 E58.63907
G1 X-22.062 Y42.449 E58.67462
G1 X-22.526 Y41.919 E58.71017
G1 X-22.926 Y41.34 E58.74568
G1 X-23.258 Y40.719 E58.78122
G1 X-23.518 Y40.065 E58.81673
G1 X-23.702 Y39.385 E58.85229
G1 X-23.808 Y38.689 E58.88781
G1 X-23.835 Y38.108 E58.91717
G1 X-23.835 Y1.89 E60.74492
G1 X-23.795 Y1.187 E60.78045
G1 X-23.676 Y0.493 E60.81599
G1 X-23.478 Y-.182 E60.85149
G1 X-23.282 Y-.649 E60.87704
G1 X-23.449 Y-1.266 E60.9093
G1 X-23.555 Y-1.962 E60.94483
G1 X-23.582 Y-2.543 E60.97418
G1 X-23.582 Y-38.756 E62.80168
G1 X-23.542 Y-39.459 E62.83722
G1 X-23.423 Y-40.153 E62.87275
G1 X-23.225 Y-40.828 E62.90825
G1 X-22.953 Y-41.477 E62.94376
G1 X-22.608 Y-42.091 E62.97931
G1 X-22.197 Y-42.662 E63.01481
G1 X-21.723 Y-43.183 E63.05035
G1 X-21.193 Y-43.647 E63.0859
G1 X-20.614 Y-44.047 E63.12142
G1 X-19.993 Y-44.379 E63.15695
G1 X-19.339 Y-44.639 E63.19247
G1 X-18.659 Y-44.823 E63.22802
G1 X-17.963 Y-44.929 E63.26355
G1 X-17.382 Y-44.956 E63.2929
G1 X17.381 Y-44.956 E65.04723
G1 X18.084 Y-44.916 E65.08276
G1 X18.778 Y-44.797 E65.1183
G1 X19.453 Y-44.599 E65.1538
G1 X20.102 Y-44.327 E65.18931
G1 X20.716 Y-43.982 E65.22485
G1 X21.287 Y-43.571 E65.26035
G1 X21.808 Y-43.097 E65.2959
G1 X22.272 Y-42.567 E65.33145
G1 X22.672 Y-41.988 E65.36696
G1 X23.004 Y-41.367 E65.4025
G1 X23.264 Y-40.713 E65.43801
G1 X23.448 Y-40.033 E65.47357
G1 X23.554 Y-39.337 E65.50909
G1 X23.581 Y-38.756 E65.53845
G1 X23.582 Y-2.543 E67.36595
G1 X23.542 Y-1.84 E67.40148
G1 X23.423 Y-1.147 E67.43696
G1 X23.225 Y-.471 E67.47251
G0 F2400 X22.826 Y-.541
G1 F1350 X22.599 Y-0.021 E67.50115
G1 X22.71 Y0.294 E67.518
G1 X22.859 Y0.959 E67.55239
G1 X22.934 Y1.89 E67.59953
G1 X22.934 Y38.108 E69.42728
G1 X22.894 Y38.788 E69.46166
G1 X22.775 Y39.458 E69.496
G1 X22.578 Y40.11 E69.53037
G1 X22.306 Y40.734 E69.56472
G1 X21.962 Y41.322 E69.5991
G1 X21.552 Y41.866 E69.63348
G1 X21.081 Y42.357 E69.66781
G1 X20.556 Y42.791 E69.70219
G1 X19.984 Y43.16 E69.73654
G1 X19.372 Y43.459 E69.77091
G1 X18.73 Y43.684 E69.80524
G1 X18.065 Y43.833 E69.83964
G1 X17.134 Y43.908 E69.88677
G1 X-17.635 Y43.908 E71.6414
G1 X-18.315 Y43.868 E71.67577
G1 X-18.985 Y43.749 E71.71012
G1 X-19.637 Y43.552 E71.74449
G1 X-20.261 Y43.28 E71.77884
G1 X-20.849 Y42.936 E71.81322
G1 X-21.393 Y42.526 E71.8476
G1 X-21.884 Y42.055 E71.88193
G1 X-22.318 Y41.53 E71.91631
G1 X-22.687 Y40.958 E71.95066
G1 X-22.986 Y40.346 E71.98503
G1 X-23.211 Y39.704 E72.01936
G1 X-23.36 Y39.039 E72.05375
G1 X-23.435 Y38.108 E72.10089
G1 X-23.435 Y1.89 E73.92864
G1 X-23.395 Y1.21 E73.96302
G1 X-23.276 Y0.54 E73.99736
G1 X-23.079 Y-.112 E74.03173
G1 X-22.85 Y-.638 E74.06068
G1 X-22.958 Y-.947 E74.0772
G1 X-23.107 Y-1.612 E74.11159
G1 X-23.182 Y-2.543 E74.15873
G1 X-23.182 Y-38.756 E75.98623
G1 X-23.142 Y-39.436 E76.0206
G1 X-23.023 Y-40.106 E76.05494
G1 X-22.826 Y-40.758 E76.08932
G1 X-22.554 Y-41.382 E76.12367
G1 X-22.21 Y-41.97 E76.15805
G1 X-21.8 Y-42.514 E76.19242
G1 X-21.329 Y-43.005 E76.22676
G1 X-20.804 Y-43.439 E76.26114
G1 X-20.232 Y-43.808 E76.29549
G1 X-19.62 Y-44.107 E76.32986
G1 X-18.978 Y-44.332 E76.36419
G1 X-18.313 Y-44.481 E76.39858
G1 X-17.382 Y-44.556 E76.44572
G1 X17.381 Y-44.556 E78.20004
G1 X18.061 Y-44.516 E78.23442
G1 X18.731 Y-44.397 E78.26876
G1 X19.383 Y-44.2 E78.30313
G1 X20.007 Y-43.928 E78.33748
G1 X20.595 Y-43.584 E78.37186
G1 X21.139 Y-43.174 E78.40624
G1 X21.63 Y-42.703 E78.44058
G1 X22.064 Y-42.178 E78.47495
G1 X22.433 Y-41.606 E78.5093
G1 X22.732 Y-40.994 E78.54368
G1 X22.957 Y-40.352 E78.57801
G1 X23.106 Y-39.687 E78.6124
G1 X23.181 Y-38.756 E78.65953
G1 X23.182 Y-2.543 E80.48703
G1 X23.142 Y-1.863 E80.52141
G1 X23.023 Y-1.193 E80.55575
G1 X22.826 Y-.541 E80.59012
G0 F2400 X22.026 Y-.691
G1 F1350 X21.755 Y-.119 E80.62207
G1 X21.725 Y-0.072 E80.62488
G1 X21.902 Y0.385 E80.64961
G1 X22.054 Y0.999 E80.68153
G1 X22.134 Y1.89 E80.72668
G1 X22.134 Y38.108 E82.55443
G1 X22.094 Y38.739 E82.58634
G1 X21.975 Y39.36 E82.61825
G1 X21.778 Y39.96 E82.65012
G1 X21.507 Y40.532 E82.68206
G1 X21.167 Y41.064 E82.71392
G1 X20.761 Y41.549 E82.74584
G1 X20.298 Y41.979 E82.77773
G1 X19.784 Y42.348 E82.80966
G1 X19.228 Y42.648 E82.84154
G1 X18.639 Y42.876 E82.87341
G1 X18.025 Y43.028 E82.90534
G1 X17.134 Y43.108 E82.95048
G1 X-17.635 Y43.108 E84.70511
G1 X-18.266 Y43.068 E84.73702
G1 X-18.887 Y42.949 E84.76893
G1 X-19.487 Y42.752 E84.8008
G1 X-20.059 Y42.481 E84.83274
G1 X-20.591 Y42.141 E84.8646
G1 X-21.076 Y41.735 E84.89652
G1 X-21.506 Y41.272 E84.92841
G1 X-21.875 Y40.758 E84.96034
G1 X-22.175 Y40.202 E84.99222
G1 X-22.403 Y39.613 E85.02409
G1 X-22.555 Y38.999 E85.05602
G1 X-22.635 Y38.108 E85.10116
G1 X-22.635 Y1.89 E86.92891
G1 X-22.595 Y1.259 E86.96082
G1 X-22.476 Y0.638 E86.99273
G1 X-22.279 Y0.038 E87.0246
G1 X-22.008 Y-.534 E87.05654
G1 X-21.975 Y-.586 E87.05965
G1 X-22.15 Y-1.038 E87.08411
G1 X-22.302 Y-1.652 E87.11603
G1 X-22.382 Y-2.543 E87.16118
G1 X-22.382 Y-38.756 E88.98868
G1 X-22.342 Y-39.387 E89.02058
G1 X-22.223 Y-40.008 E89.05249
G1 X-22.026 Y-40.608 E89.08436
G1 X-21.755 Y-41.18 E89.1163
G1 X-21.415 Y-41.712 E89.14817
G1 X-21.009 Y-42.197 E89.18009
G1 X-20.546 Y-42.627 E89.21197
G1 X-20.032 Y-42.996 E89.2439
G1 X-19.476 Y-43.296 E89.27579
G1 X-18.887 Y-43.524 E89.30766
G1 X-18.273 Y-43.676 E89.33958
G1 X-17.382 Y-43.756 E89.38473
G1 X17.381 Y-43.756 E91.13905
G1 X18.012 Y-43.716 E91.17096
G1 X18.633 Y-43.597 E91.20287
G1 X19.233 Y-43.4 E91.23474
G1 X19.805 Y-43.129 E91.26668
